X:1
T:Title
%%score ( 1 2 3 ) ( 4 5 )
L:1/8
Q:1/4=110
M:4/4
K:G
V:1 treble nm="Grand Piano, Staff 1"
V:2 treble 
V:3 treble 
V:4 bass nm="Choir Pad, Farnham, CM"
V:5 bass 
V:1
 D2 [DG]2- [DG][DA] [D_B]2 | [FA]2 G2 [DG]2 D2 | z4 ._B2 z2 | [Gc]2 [Fd]6 | %4
w: By~English~Traditional~Melody * * * *||||
 [G_B][=Fc] [Fd]2- [Fd][Fd] [^Dc]2 | [DA]2 [D_B]2 [Dd][EB] [FA]2 | .d2 ._B4 z2 | ._B2 z2 z4 | z8 |] %9
w: |||||
V:2
 x8 | x8 | D2 [D_B]2 G-[Gc] [=Fd]2 | x8 | x8 | x8 | D-[Dc] D2 z A [^DG]2 | D-[DA] [_B,G]6- | %8
 [B,G]2 z2 z4 |] %9
V:3
 x8 | x8 | x8 | x8 | x8 | x8 | z4 D2 z2 | x8 | x8 |] %9
V:4
 [G,_B,]2 [G,B,]2- [G,B,][F,D] [G,D]2 | z4 G,2 z2 | [F,A,]2 G,2 [^D,_B,]2 [_B,,B,]2 | %3
 [^D,G,]2 [=D,A,]6 | G,[A,C] _B,2- B,/ z/ [_B,,B,] [B,,G,]2 | z4 G,2 z2 | %6
 [F,A,]2 G,2 [_B,,G,]2 [C,G,]2 | .G,2 z2 z4 | z8 |] %9
V:5
 x8 | [A,C]2 [_B,D]2 _B,,C, [D,F,]2 | x8 | x8 | x8 | [D,F,]2 G,2 _B,,C, [D,D]2 | x8 | %7
 D,-[D,F,] [G,,G,]6- | [G,,G,]2 z2 z4 |] %9

